X: 14749
T: Gan Ainm
R: slip jig
M: 9/8
K: Dmajor
|:dAA f2 d Pedc|dAA fef def|gBB gaf def|efe ef/e/d cBA|
dAA fad Pedc|dAA fef def|gBB gaf def|1 efe f/e/dc dA/B/c:|2 : efe f/e/dc de/f/g||
|:aba aa/a/g fed|gg/g/B gaf edc|dAA fef def|eAf eAf gfe|
aba aa/a/g fed|gg/g/B gaf edc|dd/d/A fef def|1 efe f/e/dc de/f/g:|2 efe f/e/dc dA/B/c||

